assets/img/trustpilot.svg

<svg width="194" height="97" viewBox="0 0 194 97" fill="none" xmlns="http://www.w3.org/2000/svg">
<rect y="37.3218" width="34" height="34" rx="3" fill="#48B065"/>
<path d="M16.5 44.6343L13.5141 50.6849L6.84003 51.6496L11.67 56.3615L10.5282 63.0093L16.5 59.8724L22.4719 63.0093L21.33 56.3615L26.16 51.6562L19.486 50.6849L16.5 44.6343Z" fill="white"/>
<rect x="40" y="37.3218" width="33" height="34" rx="3" fill="#48B065"/>
<path d="M56.5 44.6343L53.5141 50.6849L46.84 51.6496L51.67 56.3615L50.5282 63.0093L56.5 59.8724L62.4719 63.0093L61.33 56.3615L66.16 51.6562L59.486 50.6849L56.5 44.6343Z" fill="white"/>
<rect x="78" y="37.3218" width="34" height="34" rx="3" fill="#48B065"/>
<path d="M94.5 44.6343L91.5141 50.6849L84.84 51.6496L89.67 56.3615L88.5282 63.0093L94.5 59.8724L100.472 63.0093L99.33 56.3615L104.16 51.6562L97.486 50.6849L94.5 44.6343Z" fill="white"/>
<rect x="118" y="37.3218" width="34" height="34" rx="3" fill="#48B065"/>
<path d="M134.5 44.6343L131.514 50.6849L124.84 51.6496L129.67 56.3615L128.528 63.0093L134.5 59.8724L140.472 63.0093L139.33 56.3615L144.16 51.6562L137.486 50.6849L134.5 44.6343Z" fill="white"/>
<rect x="160" y="37.3218" width="34" height="34" rx="3" fill="#DFDFDF"/>
<path d="M176.5 44.6343L173.514 50.6849L166.84 51.6496L171.67 56.3615L170.528 63.0093L176.5 59.8724L182.472 63.0093L181.33 56.3615L186.16 51.6562L179.486 50.6849L176.5 44.6343Z" fill="white"/>
<path d="M32.472 23.3218H36.36V9.68978H41.736V6.52178H27.096V9.68978H32.472V23.3218ZM46.8587 12.1138V10.4098H43.2827V23.3218H47.0267V17.2258C47.0267 14.7538 48.3947 13.6258 50.4587 13.6258C50.7467 13.6258 50.9867 13.6498 51.2987 13.6738V10.2178C49.3067 10.2178 47.7707 10.8658 46.8587 12.1138ZM62.8826 10.4098V16.7938C62.8826 19.1698 61.6346 20.2738 59.9066 20.2738C58.2506 20.2738 57.2906 19.3138 57.2906 17.1538V10.4098H53.5466V17.7058C53.5466 21.6898 55.8266 23.5138 59.0666 23.5138C60.6506 23.5138 62.0906 22.9138 63.0746 21.7858V23.3218H66.6266V10.4098H62.8826ZM74.4392 23.5138C78.3032 23.5138 80.5352 21.8098 80.5352 19.4098C80.5352 14.3218 72.7352 16.4578 72.7352 14.2498C72.7352 13.5778 73.4552 13.0498 75.1352 13.0498C76.3112 13.0498 77.5832 13.2898 78.8552 14.0098L80.1032 11.3458C78.8792 10.6258 76.9112 10.2178 75.1352 10.2178C71.3672 10.2178 69.1592 11.9458 69.1592 14.3938C69.1592 19.5538 76.9592 17.3938 76.9592 19.5058C76.9592 20.2258 76.3112 20.6818 74.5832 20.6818C72.9992 20.6818 71.2472 20.1778 70.0952 19.4338L68.8472 22.1218C70.0472 22.9138 72.2552 23.5138 74.4392 23.5138ZM90.1652 20.0578C89.7572 20.3698 89.2052 20.5378 88.6532 20.5378C87.6452 20.5378 87.0452 19.9378 87.0452 18.8338V13.5778H90.2612V10.6978H87.0452V7.55378H83.3012V10.6978H81.3092V13.5778H83.3012V18.8818C83.3012 21.9538 85.0772 23.5138 88.1252 23.5138C89.2772 23.5138 90.4052 23.2498 91.1732 22.6978L90.1652 20.0578ZM100.907 10.2178C99.1789 10.2178 97.7869 10.7698 96.8509 11.8978V10.4098H93.2749V27.9778H97.0189V21.9538C97.9789 23.0098 99.2989 23.5138 100.907 23.5138C104.531 23.5138 107.339 20.9218 107.339 16.8658C107.339 12.8098 104.531 10.2178 100.907 10.2178ZM100.259 20.4418C98.3869 20.4418 96.9709 19.0978 96.9709 16.8658C96.9709 14.6338 98.3869 13.2898 100.259 13.2898C102.131 13.2898 103.547 14.6338 103.547 16.8658C103.547 19.0978 102.131 20.4418 100.259 20.4418ZM111.717 8.60978C113.109 8.60978 114.045 7.69778 114.045 6.44978C114.045 5.29778 113.109 4.43378 111.717 4.43378C110.325 4.43378 109.389 5.34578 109.389 6.52178C109.389 7.69778 110.325 8.60978 111.717 8.60978ZM109.845 23.3218H113.589V10.4098H109.845V23.3218ZM117.064 23.3218H120.808V5.51378H117.064V23.3218ZM130.427 23.5138C134.531 23.5138 137.507 20.7538 137.507 16.8658C137.507 12.9778 134.531 10.2178 130.427 10.2178C126.323 10.2178 123.323 12.9778 123.323 16.8658C123.323 20.7538 126.323 23.5138 130.427 23.5138ZM130.427 20.4418C128.555 20.4418 127.115 19.0978 127.115 16.8658C127.115 14.6338 128.555 13.2898 130.427 13.2898C132.299 13.2898 133.715 14.6338 133.715 16.8658C133.715 19.0978 132.299 20.4418 130.427 20.4418ZM147.329 20.0578C146.921 20.3698 146.369 20.5378 145.817 20.5378C144.809 20.5378 144.209 19.9378 144.209 18.8338V13.5778H147.425V10.6978H144.209V7.55378H140.465V10.6978H138.473V13.5778H140.465V18.8818C140.465 21.9538 142.241 23.5138 145.289 23.5138C146.441 23.5138 147.569 23.2498 148.337 22.6978L147.329 20.0578Z" fill="white"/>
<path d="M10.5 5.63428L7.51409 11.6849L0.840027 12.6496L5.67003 17.3615L4.52815 24.0093L10.5 20.8724L16.4719 24.0093L15.33 17.3615L20.16 12.6562L13.486 11.6849L10.5 5.63428Z" fill="#48B065"/>
<path d="M3.304 93.3218H5.124V85.0618H8.372V83.5218H0.056V85.0618H3.304V93.3218ZM11.0581 86.9378V85.8458H9.39214V93.3218H11.1421V89.6958C11.1421 88.1698 11.9821 87.3858 13.3121 87.3858C13.4381 87.3858 13.5641 87.3998 13.7181 87.4278V85.7618C12.4721 85.7618 11.5621 86.1538 11.0581 86.9378ZM20.759 85.8458V89.6258C20.759 91.1238 19.933 91.8798 18.715 91.8798C17.609 91.8798 16.965 91.2358 16.965 89.8778V85.8458H15.215V90.1158C15.215 92.3698 16.517 93.4198 18.435 93.4198C19.401 93.4198 20.283 93.0558 20.843 92.3698V93.3218H22.509V85.8458H20.759ZM27.1103 93.4198C29.2103 93.4198 30.4983 92.5098 30.4983 91.1098C30.4983 88.1838 25.8783 89.5278 25.8783 88.0158C25.8783 87.5258 26.3823 87.1758 27.4463 87.1758C28.1603 87.1758 28.8743 87.3158 29.5883 87.7358L30.2603 86.4058C29.5883 85.9998 28.4543 85.7618 27.4603 85.7618C25.4443 85.7618 24.1703 86.6858 24.1703 88.0998C24.1703 91.0818 28.7903 89.7378 28.7903 91.1658C28.7903 91.6838 28.3283 91.9918 27.2223 91.9918C26.2843 91.9918 25.2763 91.6838 24.6183 91.2498L23.9463 92.5798C24.6183 93.0558 25.8643 93.4198 27.1103 93.4198ZM36.0094 91.6698C35.7434 91.8798 35.3934 91.9778 35.0294 91.9778C34.3574 91.9778 33.9934 91.5858 33.9934 90.8578V87.3018H35.9954V85.9018H33.9934V84.1938H32.2434V85.9018H31.0114V87.3018H32.2434V90.8998C32.2434 92.5518 33.1814 93.4198 34.8194 93.4198C35.4494 93.4198 36.0794 93.2518 36.4994 92.9158L36.0094 91.6698ZM41.145 93.4618C43.833 93.4618 45.107 92.1178 45.107 90.5498C45.107 86.9518 39.297 88.3098 39.297 86.2238C39.297 85.4818 39.913 84.8938 41.425 84.8938C42.279 84.8938 43.245 85.1458 44.127 85.6638L44.701 84.2498C43.847 83.6898 42.615 83.3818 41.439 83.3818C38.751 83.3818 37.491 84.7258 37.491 86.3078C37.491 89.9478 43.315 88.5618 43.315 90.6758C43.315 91.4038 42.671 91.9498 41.145 91.9498C39.941 91.9498 38.695 91.5018 37.911 90.8718L37.281 92.2858C38.093 92.9858 39.619 93.4618 41.145 93.4618ZM50.1737 93.4198C51.6297 93.4198 52.7917 92.7898 53.3657 91.6698L52.0217 90.8858C51.5737 91.5998 50.9017 91.9218 50.1597 91.9218C48.8717 91.9218 47.8917 91.0398 47.8917 89.5838C47.8917 88.1418 48.8717 87.2458 50.1597 87.2458C50.9017 87.2458 51.5737 87.5678 52.0217 88.2818L53.3657 87.4978C52.7917 86.3638 51.6297 85.7618 50.1737 85.7618C47.8077 85.7618 46.1277 87.3438 46.1277 89.5838C46.1277 91.8238 47.8077 93.4198 50.1737 93.4198ZM58.1291 93.4198C60.4531 93.4198 62.1191 91.8238 62.1191 89.5838C62.1191 87.3438 60.4531 85.7618 58.1291 85.7618C55.8331 85.7618 54.1531 87.3438 54.1531 89.5838C54.1531 91.8238 55.8331 93.4198 58.1291 93.4198ZM58.1291 91.9218C56.8691 91.9218 55.9171 91.0118 55.9171 89.5838C55.9171 88.1558 56.8691 87.2458 58.1291 87.2458C59.4031 87.2458 60.3551 88.1558 60.3551 89.5838C60.3551 91.0118 59.4031 91.9218 58.1291 91.9218ZM65.4585 86.9378V85.8458H63.7925V93.3218H65.5425V89.6958C65.5425 88.1698 66.3825 87.3858 67.7125 87.3858C67.8385 87.3858 67.9645 87.3998 68.1185 87.4278V85.7618C66.8725 85.7618 65.9625 86.1538 65.4585 86.9378ZM76.5627 89.6258C76.5627 87.2878 74.9667 85.7618 72.7827 85.7618C70.5567 85.7618 68.9187 87.3578 68.9187 89.5838C68.9187 91.8098 70.5427 93.4198 73.0487 93.4198C74.3367 93.4198 75.3867 92.9998 76.0587 92.2018L75.1207 91.1238C74.5887 91.6698 73.9307 91.9358 73.0907 91.9358C71.7887 91.9358 70.8787 91.2358 70.6687 90.1438H76.5347C76.5487 89.9758 76.5627 89.7658 76.5627 89.6258ZM72.7827 87.1618C73.9307 87.1618 74.7567 87.9038 74.8967 88.9818H70.6547C70.8227 87.8898 71.6487 87.1618 72.7827 87.1618ZM90.3168 89.5558H88.5808V87.5818H86.8728V89.5558H83.6668L88.2168 83.5218H86.2708L81.4408 89.8358V91.0958H86.8168V93.3218H88.5808V91.0958H90.3168V89.5558ZM92.4482 93.4198C93.0782 93.4198 93.5962 92.9298 93.5962 92.2578C93.5962 91.5578 93.0782 91.0958 92.4482 91.0958C91.8182 91.0958 91.3002 91.5578 91.3002 92.2578C91.3002 92.9298 91.8182 93.4198 92.4482 93.4198ZM97.3889 91.7818L100.007 89.2898C101.365 88.0158 101.631 87.1478 101.631 86.1958C101.631 84.4598 100.259 83.3818 98.1309 83.3818C96.5209 83.3818 95.1629 83.9838 94.4069 85.0058L95.6809 85.9858C96.2269 85.2858 97.0249 84.9638 97.9769 84.9638C99.1809 84.9638 99.7969 85.4818 99.7969 86.3778C99.7969 86.9238 99.6289 87.4978 98.6769 88.4078L94.7849 92.1038V93.3218H102.009V91.7818H97.3889Z" fill="white"/>
<path d="M118.972 88.1698C119.77 87.7358 120.218 87.0358 120.218 86.1118C120.218 84.4318 118.734 83.3818 116.55 83.3818C114.38 83.3818 112.91 84.4318 112.91 86.1118C112.91 87.0358 113.344 87.7358 114.128 88.1698C113.12 88.6318 112.56 89.4298 112.56 90.5078C112.56 92.3278 114.114 93.4618 116.55 93.4618C118.986 93.4618 120.568 92.3278 120.568 90.5078C120.568 89.4298 119.994 88.6318 118.972 88.1698ZM116.55 84.8098C117.67 84.8098 118.426 85.3138 118.426 86.1958C118.426 87.0358 117.712 87.5678 116.55 87.5678C115.402 87.5678 114.702 87.0358 114.702 86.1958C114.702 85.3138 115.43 84.8098 116.55 84.8098ZM116.55 92.0338C115.206 92.0338 114.394 91.4458 114.394 90.4518C114.394 89.4858 115.206 88.8838 116.55 88.8838C117.894 88.8838 118.734 89.4858 118.734 90.4518C118.734 91.4458 117.894 92.0338 116.55 92.0338ZM125.837 93.4618C128.175 93.4618 129.939 91.6418 129.939 88.4218C129.939 85.2018 128.175 83.3818 125.837 83.3818C123.513 83.3818 121.749 85.2018 121.749 88.4218C121.749 91.6418 123.513 93.4618 125.837 93.4618ZM125.837 91.8798C124.507 91.8798 123.583 90.7878 123.583 88.4218C123.583 86.0558 124.507 84.9638 125.837 84.9638C127.181 84.9638 128.105 86.0558 128.105 88.4218C128.105 90.7878 127.181 91.8798 125.837 91.8798ZM144.11 93.3218L141.856 90.1018C143.186 89.5838 143.942 88.4918 143.942 87.0078C143.942 84.8378 142.346 83.5218 139.77 83.5218H135.738V93.3218H137.558V90.4658H139.77C139.896 90.4658 140.022 90.4658 140.148 90.4518L142.15 93.3218H144.11ZM142.108 87.0078C142.108 88.2398 141.282 88.9678 139.686 88.9678H137.558V85.0618H139.686C141.282 85.0618 142.108 85.7758 142.108 87.0078ZM152.838 89.6258C152.838 87.2878 151.242 85.7618 149.058 85.7618C146.832 85.7618 145.194 87.3578 145.194 89.5838C145.194 91.8098 146.818 93.4198 149.324 93.4198C150.612 93.4198 151.662 92.9998 152.334 92.2018L151.396 91.1238C150.864 91.6698 150.206 91.9358 149.366 91.9358C148.064 91.9358 147.154 91.2358 146.944 90.1438H152.81C152.824 89.9758 152.838 89.7658 152.838 89.6258ZM149.058 87.1618C150.206 87.1618 151.032 87.9038 151.172 88.9818H146.93C147.098 87.8898 147.924 87.1618 149.058 87.1618ZM159.702 85.8458L157.308 91.3898L154.984 85.8458H153.164L156.37 93.3218H158.176L161.382 85.8458H159.702ZM163.358 84.6138C164.016 84.6138 164.478 84.1378 164.478 83.5218C164.478 82.9478 164.002 82.5138 163.358 82.5138C162.714 82.5138 162.238 82.9758 162.238 83.5638C162.238 84.1518 162.714 84.6138 163.358 84.6138ZM162.476 93.3218H164.226V85.8458H162.476V93.3218ZM173.551 89.6258C173.551 87.2878 171.955 85.7618 169.771 85.7618C167.545 85.7618 165.907 87.3578 165.907 89.5838C165.907 91.8098 167.531 93.4198 170.037 93.4198C171.325 93.4198 172.375 92.9998 173.047 92.2018L172.109 91.1238C171.577 91.6698 170.919 91.9358 170.079 91.9358C168.777 91.9358 167.867 91.2358 167.657 90.1438H173.523C173.537 89.9758 173.551 89.7658 173.551 89.6258ZM169.771 87.1618C170.919 87.1618 171.745 87.9038 171.885 88.9818H167.643C167.811 87.8898 168.637 87.1618 169.771 87.1618ZM185.203 85.8458L183.173 91.3898L181.157 85.8458H179.687L177.629 91.3618L175.655 85.8458H174.003L176.747 93.3218H178.427L180.387 88.1698L182.319 93.3218H183.999L186.757 85.8458H185.203ZM190.175 93.4198C192.275 93.4198 193.563 92.5098 193.563 91.1098C193.563 88.1838 188.943 89.5278 188.943 88.0158C188.943 87.5258 189.447 87.1758 190.511 87.1758C191.225 87.1758 191.939 87.3158 192.653 87.7358L193.325 86.4058C192.653 85.9998 191.519 85.7618 190.525 85.7618C188.509 85.7618 187.235 86.6858 187.235 88.0998C187.235 91.0818 191.855 89.7378 191.855 91.1658C191.855 91.6838 191.393 91.9918 190.287 91.9918C189.349 91.9918 188.341 91.6838 187.683 91.2498L187.011 92.5798C187.683 93.0558 188.929 93.4198 190.175 93.4198Z" fill="white"/>
<line x1="107.5" y1="79.3218" x2="107.5" y2="95.3218" stroke="white"/>
</svg>

<svg xmlns="http://www.w3.org/2000/svg" xmlns:xlink="http://www.w3.org/1999/xlink" width="194" height="97" fill="none" xmlns:v="https://vecta.io/nano"><rect y="37.322" width="34" height="34" rx="3" fill="#48b065"/><use xlink:href="#B" fill="#fff"/><rect x="40" y="37.322" width="33" height="34" rx="3" fill="#48b065"/><use xlink:href="#B" x="40" fill="#fff"/><rect x="78" y="37.322" width="34" height="34" rx="3" fill="#48b065"/><use xlink:href="#B" x="78" fill="#fff"/><rect x="118" y="37.322" width="34" height="34" rx="3" fill="#48b065"/><use xlink:href="#B" x="118" fill="#fff"/><rect x="160" y="37.322" width="34" height="34" rx="3" fill="#dfdfdf"/><g fill="#fff"><use xlink:href="#B" x="160"/><path d="M32.472 23.322h3.888V9.69h5.376V6.522h-14.64V9.69h5.376v13.632zm14.387-11.208V10.41h-3.576v12.912h3.744v-6.096c0-2.472 1.368-3.6 3.432-3.6.288 0 .528.024.84.048v-3.456c-1.992 0-3.528.648-4.44 1.896zm16.024-1.704v6.384c0 2.376-1.248 3.48-2.976 3.48-1.656 0-2.616-.96-2.616-3.12V10.41h-3.744v7.296c0 3.984 2.28 5.808 5.52 5.808 1.584 0 3.024-.6 4.008-1.728v1.536h3.552V10.41h-3.744zm11.557 13.104c3.864 0 6.096-1.704 6.096-4.104 0-5.088-7.8-2.952-7.8-5.16 0-.672.72-1.2 2.4-1.2 1.176 0 2.448.24 3.72.96l1.248-2.664c-1.224-.72-3.192-1.128-4.968-1.128-3.768 0-5.976 1.728-5.976 4.176 0 5.16 7.8 3 7.8 5.112 0 .72-.648 1.176-2.376 1.176-1.584 0-3.336-.504-4.488-1.248l-1.248 2.688c1.2.792 3.408 1.392 5.592 1.392zm15.726-3.456c-.408.312-.96.48-1.512.48-1.008 0-1.608-.6-1.608-1.704v-5.256h3.216v-2.88h-3.216V7.554h-3.744v3.144h-1.992v2.88h1.992v5.304c0 3.072 1.776 4.632 4.824 4.632 1.152 0 2.28-.264 3.048-.816l-1.008-2.64zm10.742-9.84c-1.728 0-3.12.552-4.056 1.68V10.41h-3.576v17.568h3.744v-6.024c.96 1.056 2.28 1.56 3.888 1.56 3.624 0 6.432-2.592 6.432-6.648s-2.808-6.648-6.432-6.648zm-.648 10.224c-1.872 0-3.288-1.344-3.288-3.576s1.416-3.576 3.288-3.576 3.288 1.344 3.288 3.576-1.416 3.576-3.288 3.576zM111.717 8.61c1.392 0 2.328-.912 2.328-2.16 0-1.152-.936-2.016-2.328-2.016s-2.328.912-2.328 2.088.936 2.088 2.328 2.088zm-1.872 14.712h3.744V10.41h-3.744v12.912zm7.219 0h3.744V5.514h-3.744v17.808zm13.363.192c4.104 0 7.08-2.76 7.08-6.648s-2.976-6.648-7.08-6.648-7.104 2.76-7.104 6.648 3 6.648 7.104 6.648zm0-3.072c-1.872 0-3.312-1.344-3.312-3.576s1.44-3.576 3.312-3.576 3.288 1.344 3.288 3.576-1.416 3.576-3.288 3.576zm16.902-.384c-.408.312-.96.48-1.512.48-1.008 0-1.608-.6-1.608-1.704v-5.256h3.216v-2.88h-3.216V7.554h-3.744v3.144h-1.992v2.88h1.992v5.304c0 3.072 1.776 4.632 4.824 4.632 1.152 0 2.28-.264 3.048-.816l-1.008-2.64z"/></g><path d="M10.5 5.634l-2.986 6.051-6.674.965 4.83 4.712-1.142 6.648 5.972-3.137 5.972 3.137-1.142-6.648 4.83-4.705-6.674-.971L10.5 5.634z" fill="#48b065"/><path d="M3.304 93.322h1.82v-8.26h3.248v-1.54H.056v1.54h3.248v8.26zm7.754-6.384v-1.092H9.392v7.476h1.75v-3.626c0-1.526.84-2.31 2.17-2.31a2.22 2.22 0 0 1 .406.042v-1.666c-1.246 0-2.156.392-2.66 1.176zm9.701-1.092v3.78c0 1.498-.826 2.254-2.044 2.254-1.106 0-1.75-.644-1.75-2.002v-4.032h-1.75v4.27c0 2.254 1.302 3.304 3.22 3.304.966 0 1.848-.364 2.408-1.05v.952h1.666v-7.476h-1.75zm6.351 7.574c2.1 0 3.388-.91 3.388-2.31 0-2.926-4.62-1.582-4.62-3.094 0-.49.504-.84 1.568-.84.714 0 1.428.14 2.142.56l.672-1.33c-.672-.406-1.806-.644-2.8-.644-2.016 0-3.29.924-3.29 2.338 0 2.982 4.62 1.638 4.62 3.066 0 .518-.462.826-1.568.826-.938 0-1.946-.308-2.604-.742l-.672 1.33c.672.476 1.918.84 3.164.84zm8.899-1.75c-.266.21-.616.308-.98.308-.672 0-1.036-.392-1.036-1.12v-3.556h2.002v-1.4h-2.002v-1.708h-1.75v1.708h-1.232v1.4h1.232V90.9c0 1.652.938 2.52 2.576 2.52.63 0 1.26-.168 1.68-.504l-.49-1.246zm5.136 1.792c2.688 0 3.962-1.344 3.962-2.912 0-3.598-5.81-2.24-5.81-4.326 0-.742.616-1.33 2.128-1.33.854 0 1.82.252 2.702.77l.574-1.414c-.854-.56-2.086-.868-3.262-.868-2.688 0-3.948 1.344-3.948 2.926 0 3.64 5.824 2.254 5.824 4.368 0 .728-.644 1.274-2.17 1.274-1.204 0-2.45-.448-3.234-1.078l-.63 1.414c.812.7 2.338 1.176 3.864 1.176zm9.029-.042c1.456 0 2.618-.63 3.192-1.75l-1.344-.784c-.448.714-1.12 1.036-1.862 1.036-1.288 0-2.268-.882-2.268-2.338 0-1.442.98-2.338 2.268-2.338.742 0 1.414.322 1.862 1.036l1.344-.784c-.574-1.134-1.736-1.736-3.192-1.736-2.366 0-4.046 1.582-4.046 3.822s1.68 3.836 4.046 3.836zm7.955 0c2.324 0 3.99-1.596 3.99-3.836s-1.666-3.822-3.99-3.822c-2.296 0-3.976 1.582-3.976 3.822s1.68 3.836 3.976 3.836zm0-1.498c-1.26 0-2.212-.91-2.212-2.338s.952-2.338 2.212-2.338c1.274 0 2.226.91 2.226 2.338s-.952 2.338-2.226 2.338zm7.329-4.984v-1.092h-1.666v7.476h1.75v-3.626c0-1.526.84-2.31 2.17-2.31a2.22 2.22 0 0 1 .406.042v-1.666c-1.246 0-2.156.392-2.66 1.176zm11.104 2.688c0-2.338-1.596-3.864-3.78-3.864-2.226 0-3.864 1.596-3.864 3.822s1.624 3.836 4.13 3.836c1.288 0 2.338-.42 3.01-1.218l-.938-1.078c-.532.546-1.19.812-2.03.812-1.302 0-2.212-.7-2.422-1.792h5.866l.028-.518zm-3.78-2.464c1.148 0 1.974.742 2.114 1.82h-4.242c.168-1.092.994-1.82 2.128-1.82zm17.534 2.394H88.58v-1.974h-1.708v1.974h-3.206l4.55-6.034H86.27l-4.83 6.314v1.26h5.376v2.226h1.764v-2.226h1.736v-1.54zm2.131 3.864c.63 0 1.148-.49 1.148-1.162a1.12 1.12 0 0 0-1.148-1.162 1.12 1.12 0 0 0-1.148 1.162c0 .672.518 1.162 1.148 1.162zm4.941-1.638l2.618-2.492c1.358-1.274 1.624-2.142 1.624-3.094 0-1.736-1.372-2.814-3.5-2.814-1.61 0-2.968.602-3.724 1.624l1.274.98c.546-.7 1.344-1.022 2.296-1.022 1.204 0 1.82.518 1.82 1.414 0 .546-.168 1.12-1.12 2.03l-3.892 3.696v1.218h7.224v-1.54h-4.62zm21.584-3.612c.798-.434 1.246-1.134 1.246-2.058 0-1.68-1.484-2.73-3.668-2.73-2.17 0-3.64 1.05-3.64 2.73 0 .924.434 1.624 1.218 2.058-1.008.462-1.568 1.26-1.568 2.338 0 1.82 1.554 2.954 3.99 2.954s4.018-1.134 4.018-2.954c0-1.078-.574-1.876-1.596-2.338zm-2.422-3.36c1.12 0 1.876.504 1.876 1.386 0 .84-.714 1.372-1.876 1.372-1.148 0-1.848-.532-1.848-1.372 0-.882.728-1.386 1.848-1.386zm0 7.224c-1.344 0-2.156-.588-2.156-1.582 0-.966.812-1.568 2.156-1.568s2.184.602 2.184 1.568c0 .994-.84 1.582-2.184 1.582zm9.287 1.428c2.338 0 4.102-1.82 4.102-5.04s-1.764-5.04-4.102-5.04c-2.324 0-4.088 1.82-4.088 5.04s1.764 5.04 4.088 5.04zm0-1.582c-1.33 0-2.254-1.092-2.254-3.458s.924-3.458 2.254-3.458c1.344 0 2.268 1.092 2.268 3.458s-.924 3.458-2.268 3.458zm18.273 1.442l-2.254-3.22c1.33-.518 2.086-1.61 2.086-3.094 0-2.17-1.596-3.486-4.172-3.486h-4.032v9.8h1.82v-2.856h2.212l.378-.014 2.002 2.87h1.96zm-2.002-6.314c0 1.232-.826 1.96-2.422 1.96h-2.128v-3.906h2.128c1.596 0 2.422.714 2.422 1.946zm10.73 2.618c0-2.338-1.596-3.864-3.78-3.864-2.226 0-3.864 1.596-3.864 3.822s1.624 3.836 4.13 3.836c1.288 0 2.338-.42 3.01-1.218l-.938-1.078c-.532.546-1.19.812-2.03.812-1.302 0-2.212-.7-2.422-1.792h5.866l.028-.518zm-3.78-2.464c1.148 0 1.974.742 2.114 1.82h-4.242c.168-1.092.994-1.82 2.128-1.82zm10.644-1.316l-2.394 5.544-2.324-5.544h-1.82l3.206 7.476h1.806l3.206-7.476h-1.68zm3.656-1.232c.658 0 1.12-.476 1.12-1.092 0-.574-.476-1.008-1.12-1.008s-1.12.462-1.12 1.05.476 1.05 1.12 1.05zm-.882 8.708h1.75v-7.476h-1.75v7.476zm11.075-3.696c0-2.338-1.596-3.864-3.78-3.864-2.226 0-3.864 1.596-3.864 3.822s1.624 3.836 4.13 3.836c1.288 0 2.338-.42 3.01-1.218l-.938-1.078c-.532.546-1.19.812-2.03.812-1.302 0-2.212-.7-2.422-1.792h5.866l.028-.518zm-3.78-2.464c1.148 0 1.974.742 2.114 1.82h-4.242c.168-1.092.994-1.82 2.128-1.82zm15.432-1.316l-2.03 5.544-2.016-5.544h-1.47l-2.058 5.516-1.974-5.516h-1.652l2.744 7.476h1.68l1.96-5.152 1.932 5.152h1.68l2.758-7.476h-1.554zm4.972 7.574c2.1 0 3.388-.91 3.388-2.31 0-2.926-4.62-1.582-4.62-3.094 0-.49.504-.84 1.568-.84.714 0 1.428.14 2.142.56l.672-1.33c-.672-.406-1.806-.644-2.8-.644-2.016 0-3.29.924-3.29 2.338 0 2.982 4.62 1.638 4.62 3.066 0 .518-.462.826-1.568.826-.938 0-1.946-.308-2.604-.742l-.672 1.33c.672.476 1.918.84 3.164.84z" fill="#fff"/><path stroke="#fff" d="M107.5 79.322v16"/><defs ><path id="B" d="M16.5 44.634l-2.986 6.051-6.674.965 4.83 4.712-1.142 6.648 5.972-3.137 5.972 3.137-1.142-6.648 4.83-4.705-6.674-.971-2.986-6.051z"/></defs></svg>
